_uploads/ornament-stripes.svg

<svg width="40" height="40" viewBox="0 0 40 40" fill="none" xmlns="http://www.w3.org/2000/svg">
<path fill-rule="evenodd" clip-rule="evenodd" d="M20 39C30.4934 39 39 30.4934 39 20C39 9.50659 30.4934 1 20 1C9.50659 1 1 9.50659 1 20C1 30.4934 9.50659 39 20 39ZM40 20C40 31.0457 31.0457 40 20 40C8.9543 40 0 31.0457 0 20C0 8.9543 8.9543 0 20 0C31.0457 0 40 8.9543 40 20Z" fill="black"/>
<path d="M39.5 18H0.5L3 10H37L39.5 18Z" fill="black"/>
<path d="M0.5 22H39.5L36.6516 30H3L0.5 22Z" fill="black"/>
</svg>

<svg width="40" height="40" fill="none" xmlns="http://www.w3.org/2000/svg"><path fill-rule="evenodd" clip-rule="evenodd" d="M20 39c10.493 0 19-8.507 19-19S30.493 1 20 1 1 9.507 1 20s8.507 19 19 19zm20-19c0 11.046-8.954 20-20 20S0 31.046 0 20 8.954 0 20 0s20 8.954 20 20z" fill="#000"/><path d="M39.5 18H.5L3 10h34l2.5 8zm-39 4h39l-2.848 8H3L.5 22z" fill="#000"/></svg>
